!!!COM: Claude Goudimel
!!!OMD: Psalm 21: Seigneur, le Roy s'esjouira
**kern	**kern	**kern	**kern
*part4	*part3	*part2	*part1
*staff4	*staff3	*staff2	*staff1
*clefF4	*clefGv2	*clefG2	*clefG2
*k[f#c#]	*k[f#c#]	*k[f#c#]	*k[f#c#]
!!LO:TX:omd:t=
*M4/4	*M4/4	*M4/4	*M4/4
=1	=1	=1	=1
2AA	2c#	2e	2a
4D	4d	4f#	4a
4E	4B	4e	4g
=2	=2	=2	=2
2BB	2B	2e-X	2f#
2GG	2d	2g	2b
=3	=3	=3	=3
4D	4d	4f#	4a
4E	4B	4en	4g
2BB	2B	2e-X	2f#
=4	=4	=4	=4
2r	2r	2r	2r
2BB	2F#	2B	2d
=5	=5	=5	=5
4BB	4B	4d	4f#
4E	4B	4e	4g
4D	4d	4f#	4a
4F#	4c#	[4a	4a
=6	=6	=6	=6
2E	2e	4a]	2b
.	.	4g#X	.
2AA	2e	2a	2a
=7	=7	=7	=7
2r	2r	2r	2r
2D	2d	2f#	2a
=8	=8	=8	=8
4D	4A	4d	4f#
4D	4A	4A	4f#
4BB	4B	4d	4d
4D	4A	[4d	4f#
=9	=9	=9	=9
2AA	2A	4d]	2e
.	.	4c#	.
2D	2F#	2d	2d
=10	=10	=10	=10
2r	2r	2r	2r
2D	2d	2f#	2a
=11	=11	=11	=11
4G	4d	4g	4b
4E	4e	4g	4b
2A	2e	2a	2cc#
=12	=12	=12	=12
2D	2d	2f#	2a
4BB	4d	4g	4b
4AA	4e	4a	4cc#
=13	=13	=13	=13
2D	2f#	2a	2dd
2r	2r	2r	2r
=14	=14	=14	=14
2D	2d	2f#	2a
4G	4d	4g	4b
4G	4d	4g	4b
=15	=15	=15	=15
2D	2d	2f#	2a
2E	2B	2e	2g
=16	=16	=16	=16
2BB	2B	2d	2f#
2r	2r	2r	2r
=17	=17	=17	=17
2BB	2F#	2B	2d
4AA	4A	4c#	4e
4GG	4B	[4e	4g
=18	=18	=18	=18
2D	2A	4e]	2f#
.	.	2d	.
2AA	2A	.	2e
.	.	4c#	.
=19	=19	=19	=19
1D	1A	1d	1d
==	==	==	==
*-	*-	*-	*-
!!!software: music21 v.9.7.1
!!!software: music21 v.8.3.0
!!!RDF**kern: > = above
!!!RDF**kern: < = below
